!!!COM: Copland, Aaron
!!!OTL: Dance Panels, Ballet in Seven Sections
!!!OMV: V: Con brio
!!!example: 723
!!!work: Cop-41
**kern	**kern	**kern	**kern	**kern	**kern	**kern	**kern
*part8	*part7	*part6	*part5	*part4	*part3	*part2	*part1
*staff8	*staff7	*staff6	*staff5	*staff4	*staff3	*staff2	*staff1
*I"Contrabass	*I"Violoncello	*I"Viola	*I"Violin II	*I"Violin I	*I"Temple Blocks	*I"Trombone	*I"Horn in F
*I'Cb.	*I'Vc.	*I'Vla.	*I'Vln. II	*I'Vln. I	*I'Perc.	*I'Tbn.	*I'Hn.
*clefF4	*clefF4	*clefC3	*clefG2	*clefG2	*clefpercussion0	*clefF4	*clefG2
*k[f#c#g#d#]	*k[f#c#g#d#]	*k[f#c#g#d#]	*k[f#c#g#d#]	*k[f#c#g#d#]	*	*k[f#c#g#d#]	*
*E:	*E:	*E:	*E:	*E:	*	*E:	*
*M2/4	*M2/4	*M2/4	*M2/4	*M2/4	*M2/4	*M2/4	*M2/4
*MM121	*MM121	*MM121	*MM121	*MM121	*MM121	*MM121	*MM121
=124	=	=	=	=	=	=	=
4r	4r	4r	8r	8r	8x'	8r	2r
.	.	.	8f#'	8f#'	8r	8f#'	.
8r	8r	8r	4r	4r	8x^	4r	.
(16CC#LL	(16CC#LL 16C#	(16C#LL	.	.	8r	.	.
16DD#JJ	16DD#JJ 16D#	16D#JJ	.	.	.	.	.
=125	=125	=125	=125	=125	=125	=125	=125
8EE')	8EE') 8E	8E')	8r	8r	8x'L	8r	8E'
8r	8r	8r	8c#'	8c#'	8x^J	8c#'	8r
8r	8r	8r	4r	4r	8r	4r	8r
8FF#'	8FF#' 8F#	8F#'	.	.	8x'	.	8F#X'
=126	=126	=126	=126	=126	=126	=126	=126
4r	4r	4r	8r	8r	8x^	4r	4r
.	.	.	(16c#LL	(16c#LL	8r	.	.
.	.	.	16dnJJ	16dnJJ	.	.	.
8r	8r	8r	16e')	16e')	8x'	8e'	8r
.	.	.	16r	16r	.	.	.
8CC#'	8CC#' 8C#	8C#'	8r	8r	8r	8r	8C#X'
=127	=127	=127	=127	=127	=127	=127	=127
4r	4r	4r	8r	8r	8x^	8r	2r
.	.	.	8f#'	8f#'	8r	8f#'	.
8r	8r	8r	4r	4r	8x'L	4r	.
(16CC#LL	(16CC#LL 16C#	(16C#LL	.	.	8x^J	.	.
16DD#JJ	16DD#JJ 16D#	16D#JJ	.	.	.	.	.
=128	=128	=128	=128	=128	=128	=128	=128
16EELL	16EELL 16E	16ELL	8r	8r	8r	8r	(16ELL
16FF#'JJ)	16FF#'JJ) 16F#	16F#'JJ)	.	.	.	.	16F#X'JJ)
8r	8r	8r	8c#'	8c#'	8x'	8c#'	8r
4r	4r	4r	4r	4r	8x^	4r	4r
.	.	.	.	.	8r	.	.
=129	=129	=129	=129	=129	=129	=129	=129
8r	8r	8r	8r	8r	8x'	4r	8r
8CC#'	8CC#' 8C#	8C#'	(16c#LL	(16c#LL	8r	.	8C#X'
.	.	.	16dnJJ	16dnJJ	.	.	.
8r	8r	8r	16eLL	16eLL	8x^	(16eLL	4r
.	.	.	16f#'JJ)	16f#'JJ)	.	16f#'JJ)	.
(16CC#LL	(16CC#LL 16C#	(16C#LL	8r	8r	8r	8r	.
16DDnJJ	16DDnJJ 16Dn	16DnJJ	.	.	.	.	.
=130	=130	=130	=130	=130	=130	=130	=130
8EE')	8EE') 8E	8E')	8r	8r	8x'L	4r	8E'
8r	8r	8r	8c#'	8c#'	8x^J	.	8r
8FF#'	8FF#' 8F#	8F#'	8r	8r	8r	8r	8r
8r	8r	8r	(16c#LL	(16c#LL	8x'	8c#'	8F#X'
.	.	.	16dnJJ)	16dnJJ)	.	.	.
==	==	==	==	==	==	==	==
*-	*-	*-	*-	*-	*-	*-	*-
!!!CDT: 1900/11/14-1990/12/02
!!!CBL: Brooklyn, United States
!!!CDL: North Tarrytown, United States
!!!CNT: American
!!!AGN: Stage; Ballet
!!!MCN: Copland, Aaron
!!!MDT: 1963/12/03
!!!MGN: Bavarian State Opera Ballet
!!!MLC: Munich, Germany
!!!MPD: 1963
!!!MPN:
!!!ODT: 1959 (rev. 1962)
!!!PDT: 1965
!!!excerpt-start-measure: 124
!!!excerpt-end-measure: 130
!!!excerpt-start-time: 1:41
!!!excerpt-end-time: 1:47
!!!EEV: 2020/01/17
!!!system-decoration: [(s1,s2)]s3[(s4,s5,s6,s7,s8)]
!!!ONB: Converted from MusicXML on 2020/01/17
